X:27
T: Esperanza
I:last changed 14/2/2016
F:http://www.campin.me.uk/Music/Edinbal.abc
G:Scottish
C:Marc Perrone
M:2/4
L:1/16
K:C
"Am"A2Ac e2ec |AEAc  e4  |     A2Ac e2fe |"E" dcBA    ^G4  |
    B2Bc d2dc |BA^GA B4  |     B2Bc d2fe |    dcBc "Am"A4 :|
"Dm"ff2f e2df-|fAdf  afdA| "Am"ee2e dc2e-|    eAce     aecA|
"E" dddd c2B2 |dB2^G E4  |[1   edcB A2B2 |"Am"c8          :|\
                          [2   edcB A2^G2|"Am"A8          |]

